www/assets/icons/thunderstorm.svg

<svg xmlns="http://www.w3.org/2000/svg" width="24" height="24" viewBox="0 0 24 24" fill='currentColor'><path d="M17.92 6.02C17.45 3.18 14.97 1 12 1 9.82 1 7.83 2.18 6.78 4.06 4.09 4.41 2 6.74 2 9.5 2 12.53 4.47 15 7.5 15h10c2.48 0 4.5-2.02 4.5-4.5a4.5 4.5 0 0 0-4.08-4.48M14.8 16l-2.9 3.32 2 1L11.55 23h2.65l2.9-3.32-2-1L17.45 16zm-6 0-2.9 3.32 2 1L5.55 23H8.2l2.9-3.32-2-1L11.45 16z"/></svg>

<svg width="24" height="24" viewBox="0 0 24 24" xmlns="http://www.w3.org/2000/svg" fill='currentColor'><path d="M17.92 6.02C17.45 3.18 14.97 1 12 1C9.82 1 7.83 2.18 6.78 4.06C4.09 4.41 2 6.74 2 9.5C2 12.53 4.47 15 7.5 15H17.5C19.98 15 22 12.98 22 10.5C22 8.16 20.21 6.23 17.92 6.02Z"/><path d="M14.8 16L11.9 19.32L13.9 20.32L11.55 23H14.2L17.1 19.68L15.1 18.68L17.45 16H14.8Z"/><path d="M8.8 16L5.9 19.32L7.9 20.32L5.55 23H8.2L11.1 19.68L9.1 18.68L11.45 16H8.8Z"/></svg>
